X: 4016
T: HIGHLAND BLACK LADDIE
R: Reel.
%R: reel
B: James Kerr "Merry Melodies" v.4 p.04 #16
Z: 2016 John Chambers <jc:trillian.mit.edu>
M: C|
L: 1/8
K: A
a |\
eAcA e2c2 | fBBc fBBa |\
eAcA e2c2 |[1 eAAc eAA :|[2 A/B/c/d/ eB cAA |]
|: a |\
fefa (fe)c2 | fBBc fBBa |\
fefa (fe)c2 |[1 eAAc eAA :|[2 A/B/c/d/ eB cAA |]

%%sep 1 1 500
%%sep 1 1 500

